src/assets/icons/ftic/people-2.svg

<?xml version="1.0" encoding="UTF-8"?>
<svg width="25px" height="34px" viewBox="0 0 25 34" version="1.1" xmlns="http://www.w3.org/2000/svg" xmlns:xlink="http://www.w3.org/1999/xlink">
    <!-- Generator: Sketch 47.1 (45422) - http://www.bohemiancoding.com/sketch -->
    <title>Group 2</title>
    <desc>Created with Sketch.</desc>
    <defs></defs>
    <g id="DESIGNS" stroke="none" stroke-width="1" fill="none" fill-rule="evenodd">
        <g id="Home--aantal-Personen" transform="translate(-221.000000, -552.000000)" fill-rule="nonzero" fill="#333E48">
            <g id="2" transform="translate(186.000000, 525.000000)">
                <g id="Group-2" transform="translate(35.000000, 27.000000)">
                    <g id="Men-Copy">
                        <ellipse id="Oval" cx="6" cy="3.51460674" rx="3.1125" ry="3.17078652"></ellipse>
                        <path d="M8.925,9.16853933 C7.3125,9.16853933 6.5625,9.16853933 6.225,9.16853933 C6.225,9.16853933 6.1875,9.16853933 5.925,9.16853933 C5.55,9.16853933 4.8,9.16853933 3.15,9.16853933 C0.3375,9.16853933 0.3,12.2629213 0.3,12.2629213 L0.3,21.6988764 L2.4375,21.6988764 L2.4375,33.6561798 L5.925,33.6561798 L6.225,33.6561798 L9.6375,33.6561798 L9.6375,21.6988764 L11.7375,21.6988764 L11.7375,12.2629213 C11.7,12.2629213 11.7,9.16853933 8.925,9.16853933 Z" id="Shape"></path>
                    </g>
                    <g id="Men-Copy-2" transform="translate(14.000000, 0.000000)">
                        <circle id="Oval" cx="6" cy="3" r="3"></circle>
                        <path d="M8.29508197,9 C6.7442623,9 6.02295082,9 5.69836066,9 C5.69836066,9 5.66229508,9 5.40983607,9 C5.04918033,9 4.32786885,9 2.74098361,9 C0.0360655738,9 0,12.0327613 0,12.0327613 L0,21.2808112 L2.0557377,21.2808112 L2.0557377,33 L5.40983607,33 L5.69836066,33 L8.98032787,33 L8.98032787,21.2808112 L11,21.2808112 L11,12.0327613 C10.9639344,12.0327613 10.9639344,9 8.29508197,9 Z" id="Shape"></path>
                    </g>
                </g>
            </g>
        </g>
    </g>
</svg>

<svg xmlns="http://www.w3.org/2000/svg" viewBox="0 0 25 34"><ellipse cx="6" cy="3.515" rx="3.112" ry="3.171"/><path d="M8.925 9.169H3.15C.337 9.169.3 12.263.3 12.263v9.436h2.138v11.957h7.199V21.7h2.1v-9.436c-.037 0-.037-3.094-2.812-3.094z"/><g transform="translate(14)"><circle cx="6" cy="3" r="3"/><path d="M8.295 9H2.741C.036 9 0 12.033 0 12.033v9.248h2.056V33H8.98V21.28H11v-9.247c-.036 0-.036-3.033-2.705-3.033z"/></g></svg>
